dist/img/icons/calendar-grey.svg

<svg width="16" height="16" viewBox="0 0 16 16" fill="none" xmlns="http://www.w3.org/2000/svg">
<path d="M2.66667 6.00001H5.33333V8.66668H2.66667V6.00001Z" fill="#D9DADC"/>
<path d="M5.33333 10H2.66667V12.6667H5.33333V10Z" fill="#D9DADC"/>
<path d="M6.66667 6.00001H9.33333V8.66668H6.66667V6.00001Z" fill="#D9DADC"/>
<path d="M9.33333 10H6.66667V12.6667H9.33333V10Z" fill="#D9DADC"/>
<path d="M10.6667 6.00001H13.3333V8.66668H10.6667V6.00001Z" fill="#D9DADC"/>
<path d="M13.3333 10H10.6667V12.6667H13.3333V10Z" fill="#D9DADC"/>
<path fill-rule="evenodd" clip-rule="evenodd" d="M2.66667 0.333334C2.66667 0.149239 2.81591 0 3 0H4.33333C4.51743 0 4.66667 0.149239 4.66667 0.333334V1.33333H11.3333V0.333334C11.3333 0.149239 11.4826 0 11.6667 0H13C13.1841 0 13.3333 0.149239 13.3333 0.333334V1.33333H15.3333C15.7015 1.33333 16 1.63181 16 2V14.6667C16 15.0349 15.7015 15.3334 15.3333 15.3334H0.666667C0.298477 15.3334 0 15.0349 0 14.6667V2C0 1.63181 0.298477 1.33333 0.666667 1.33333H2.66667V0.333334ZM14.6667 4H1.33333V14H14.6667V4Z" fill="#D9DADC"/>
</svg>

<svg width="16" height="16" fill="none" xmlns="http://www.w3.org/2000/svg"><path d="M2.667 6h2.666v2.667H2.667V6zm2.666 4H2.667v2.667h2.666V10zm1.334-4h2.666v2.667H6.667V6zm2.666 4H6.667v2.667h2.666V10zm1.334-4h2.666v2.667h-2.666V6zm2.666 4h-2.666v2.667h2.666V10z" fill="#D9DADC"/><path fill-rule="evenodd" clip-rule="evenodd" d="M2.667.333C2.667.15 2.816 0 3 0h1.333c.184 0 .334.15.334.333v1h6.666v-1c0-.184.15-.333.334-.333H13c.184 0 .333.15.333.333v1h2c.368 0 .667.299.667.667v12.667a.667.667 0 01-.667.666H.667A.667.667 0 010 14.667V2c0-.368.298-.667.667-.667h2v-1zm12 3.667H1.333v10h13.334V4z" fill="#D9DADC"/></svg>
